X: 35772
T: Sally Gardens, The
R: reel
M: 4/4
K: Dmajor
|:[A,A][B,B]|D2 [A,A]D F2 DF|AFBF AFEF|A/B/A FA BddB|AFEF D[B,B][A,A][B,FB]|
D2 A,D BD D/E/F|AFBF AF E2|A2 FA B/c/d dB|AFED D2:|
|:E/F/G|Addc d/e/d AB|d/e/d fd edcd|Bee^d e2 Bd|edfd edBG|
Addc d2 Ad|d2 fd edBG|A2 F/G/A BddB|AFEF D2:|

